svg/contrast_box.svg

<?xml version="1.0" encoding="UTF-8"?><!DOCTYPE svg PUBLIC "-//W3C//DTD SVG 1.1//EN" "http://www.w3.org/Graphics/SVG/1.1/DTD/svg11.dtd"><svg xmlns="http://www.w3.org/2000/svg" xmlns:xlink="http://www.w3.org/1999/xlink" version="1.1" id="mdi-contrast-box" width="24" height="24" viewBox="0 0 24 24"><path d="M17,15.5H12V17H17M19,19H5L19,5M5.5,7.5H7.5V5.5H9V7.5H11V9H9V11H7.5V9H5.5M19,3H5C3.89,3 3,3.89 3,5V19A2,2 0 0,0 5,21H19A2,2 0 0,0 21,19V5C21,3.89 20.1,3 19,3Z" /></svg>

<svg xmlns="http://www.w3.org/2000/svg" viewBox="0 0 24 24"><path d="M17 15.5h-5V17h5m2 2H5L19 5M5.5 7.5h2v-2H9v2h2V9H9v2H7.5V9h-2M19 3H5c-1.11 0-2 .89-2 2v14a2 2 0 0 0 2 2h14a2 2 0 0 0 2-2V5a2 2 0 0 0-2-2"/></svg>
